X: 43271
T: Wonder, The
R: hornpipe
M: 4/4
K: Cmajor
|:)G,A,B,|CGEC B,GDB,|C2EC G,CCB,|A,2DE FEDC|B,G^FG AGFD|
CGEC B,GDB,|C2EC G,CCB,|A,2DE FDB,C|DCCB, C2:|
|:DC|B,GG^F G=FDC|B,GG^F GBAG|^FGAB cA^FG|AGG^F GAG=F|
EFED ^CE A2|DEDC B,DG^G|AcBA GFDB,|CEDB, C2:|

